X: 242
T: Miss H. Wauchope's Favorite
C: William Shepherd (17??-1812)
R: jig
Q: "Slow"
B: William Shepherd "2nd Collection" 1800 p.24 #2
F: http://imslp.org/wiki/File:PMLP73094-Shepherd_Collections_HMT.pdf
Z: 2012 John Chambers <jc:trillian.mit.edu>
M: 6/8
L: 1/8
K: Gm
d/c/ |\
B<GG D<GG | B,<GG G,2Tc/B/ | A<FF TF2c/B/ | A<FF TF2d/c/ |\
B<GG D<GG | B,<GG G,<dc | TB>cd TA>Bc |
B<GTG G2 :|\
B/A/ |\
G<gg Tg2d | g g/a/b/a/ Tg2d | f2c cc/d/c/B/ | A<FF F2A |\
G<gg Tg2f | G<gg Tg2g/a/ | b>ag {b}a>gf | d<gg Tg2g/a/ |
bgb afa | gdg fcf | A>Bc {e}d>cB | A<FF TF2d/c/ |\
B<TGG A>T^FF | G>DD E>CC | B,>TCD D>G^F | G>G,G, G,2 |]

